X: 36
T:Dingles Regatta
M:6/8
L:1/8
R:Jig
N:http://www.lesession.co.uk
Z:Steve Mansfield 1998-2001
K:G
Bc |: d^cd e2 d | BAB d2 B | A2 A AGA | B2 A G2 d | 
d^cd e2 d | BAB d2 B | A2 A ABA | G3 G3 :: 
d3 def | g2 g gfg | a2 a aga | b2 a g2 e | 
d2 d def | g2 g gfg | a2 g f2 e | def g3 :: 
gbg dgd | BdB G2 G | ABA DEF | G2 B d2 d | 
gbg dgd | BdB G2 d | ABA DEF | G3 G3 :|
<end>
<start>
